src/16/actions/formula.svg

<svg xmlns="http://www.w3.org/2000/svg" width="16" height="16" viewBox="0 0 16 16">
 <defs>
  <style id="current-color-scheme" type="text/css">
   .ColorScheme-Text { color:#565656; } .ColorScheme-Highlight { color:#5294e2; }
  </style>
 </defs>
 <path style="fill:currentColor" class="ColorScheme-Text" d="M 9.1503906 1 A 1.0001 1.0001 0 0 0 8.1835938 1.7421875 L 6.2890625 8.8164062 L 5.5292969 7.5 A 1.0001 1.0001 0 0 0 4.6640625 7 L 2.0019531 7 A 1.0001 1.0001 0 0 0 1.0019531 8 L 1.0019531 9 A 1.0001 1.0001 0 0 0 2.0019531 10 L 3.5078125 10 L 6.1074219 14.5 A 1.0001 1.0001 0 0 0 7.9394531 14.259766 L 10.6875 4 L 14.001953 4 A 1.0001 1.0001 0 0 0 15.001953 3 L 15.001953 2 A 1.0001 1.0001 0 0 0 14.001953 1 L 9.1503906 1 z"/>
</svg>

<svg xmlns="http://www.w3.org/2000/svg" width="16" height="16"><defs><style id="current-color-scheme" type="text/css"></style></defs><path d="M9.15 1a1 1 0 0 0-.966.742L6.289 8.816 5.53 7.5a1 1 0 0 0-.865-.5H2.002a1 1 0 0 0-1 1v1a1 1 0 0 0 1 1h1.506l2.6 4.5a1 1 0 0 0 1.831-.24L10.687 4h3.315a1 1 0 0 0 1-1V2a1 1 0 0 0-1-1H9.15z" fill="currentColor" color="#565656"/></svg>
